X: 121
T:Nelson Hornpipe. JaW.121
M:C|
Q:160
S:James Winder Ms, Lancashire, 1835-41
R:Hornpipe
O:England
A:Wyresdale,Lancashire
H:1/8
Z:vmp.Chris Partington, Aug 2004
K:G
Bc|dBec BAcB|GFAF G2Bd|eBge edcB|BAdA BAGF|!
dBec BAcB|GFAF Ggec|BAcA GFAF|G2G2G2:|!
|:Bc|dfgf edcB|ddef g2fe|edcB AGFE|F2DD D2GF|!
EFAF GBdB|cege dBec|BAcA GFAF|G2G2G2:|]
